modules/feathericon/icons/car.svg

<?xml version="1.0" encoding="UTF-8"?>
<svg width="24px" height="24px" viewBox="0 0 24 24" version="1.1" xmlns="http://www.w3.org/2000/svg" xmlns:xlink="http://www.w3.org/1999/xlink">
    <!-- Generator: sketchtool 52.2 (67145) - http://www.bohemiancoding.com/sketch -->
    <title>car</title>
    <desc>Created with sketchtool.</desc>
    <g id="vehicles" stroke="none" stroke-width="1" fill="none" fill-rule="evenodd">
        <g id="car" fill="#000000" fill-rule="nonzero">
            <path d="M3,18 L3,13 C3,11.8954305 3.8954305,11 5,11 L5,8 C5,5.790861 6.790861,4 9,4 L15,4 C17.209139,4 19,5.790861 19,8 L19,11 C20.1045695,11 21,11.8954305 21,13 L21,18 C21,19.1045695 20.1045695,20 19,20 C17.8954305,20 17,19.1045695 17,18 L7,18 C7,19.1045695 6.1045695,20 5,20 C3.8954305,20 3,19.1045695 3,18 Z M9,6 C7.8954305,6 7,6.8954305 7,8 L7,11 L17,11 L17,8 C17,6.8954305 16.1045695,6 15,6 L9,6 Z M6,15 C6.55228475,15 7,14.5522847 7,14 C7,13.4477153 6.55228475,13 6,13 C5.44771525,13 5,13.4477153 5,14 C5,14.5522847 5.44771525,15 6,15 Z M18,15 C18.5522847,15 19,14.5522847 19,14 C19,13.4477153 18.5522847,13 18,13 C17.4477153,13 17,13.4477153 17,14 C17,14.5522847 17.4477153,15 18,15 Z" id="Shape"></path>
        </g>
    </g>
</svg>

<svg width="24" height="24" viewBox="0 0 24 24" xmlns="http://www.w3.org/2000/svg"><path d="M3 18v-5a2 2 0 0 1 2-2V8a4 4 0 0 1 4-4h6a4 4 0 0 1 4 4v3a2 2 0 0 1 2 2v5a2 2 0 1 1-4 0H7a2 2 0 1 1-4 0zM9 6a2 2 0 0 0-2 2v3h10V8a2 2 0 0 0-2-2H9zm-3 9a1 1 0 1 0 0-2 1 1 0 0 0 0 2zm12 0a1 1 0 1 0 0-2 1 1 0 0 0 0 2z" fill="#000" fill-rule="nonzero"/></svg>
